azure-icons/Application-Insights.svg

<svg xmlns="http://www.w3.org/2000/svg" viewBox="0 0 18 18"><defs><radialGradient id="a" cx="9" cy="7.35" r="6.42" gradientUnits="userSpaceOnUse"><stop offset="0" stop-color="#b77af4"/><stop offset=".21" stop-color="#b378f2"/><stop offset=".43" stop-color="#a672ed"/><stop offset=".65" stop-color="#9267e4"/><stop offset=".88" stop-color="#7559d8"/><stop offset="1" stop-color="#624fd0"/></radialGradient><linearGradient id="b" x1="9.02" y1="3.91" x2="9.08" y2="11.49" gradientUnits="userSpaceOnUse"><stop offset="0" stop-color="#f2f2f2"/><stop offset=".23" stop-color="#f1f1f2" stop-opacity=".99"/><stop offset=".37" stop-color="#ededf1" stop-opacity=".95"/><stop offset=".48" stop-color="#e7e5f0" stop-opacity=".89"/><stop offset=".58" stop-color="#dedbee" stop-opacity=".81"/><stop offset=".67" stop-color="#d3ceeb" stop-opacity=".7"/><stop offset=".76" stop-color="#c4bee8" stop-opacity=".57"/><stop offset=".84" stop-color="#b4abe5" stop-opacity=".41"/><stop offset=".92" stop-color="#a095e1" stop-opacity=".22"/><stop offset=".99" stop-color="#8b7ddc" stop-opacity=".02"/><stop offset="1" stop-color="#897bdc" stop-opacity="0"/></linearGradient></defs><path d="M10.23 17.39l.81-.87V14.2H7v2.32l.81.87a.32.32 0 00.19.11h2a.32.32 0 00.23-.11z" fill="#cecece"/><path d="M9 .5a5.89 5.89 0 00-5.91 6.57c.27 2.47 2.62 3.62 3.29 6.75a.49.49 0 00.47.38h4.3a.49.49 0 00.47-.38c.67-3.13 3-4.28 3.29-6.75A5.89 5.89 0 009 .5zM7 14.2" fill="url(#a)"/><path d="M11.46 3.79a1.4 1.4 0 00-1.35 1.44V6H8v-.77a1.41 1.41 0 00-1.41-1.44 1.4 1.4 0 00-1.35 1.44 1.41 1.41 0 001.35 1.45h.64v6a.36.36 0 00.72 0v-6h2.16v6a.36.36 0 10.72 0v-6h.63a1.4 1.4 0 001.35-1.45 1.4 1.4 0 00-1.35-1.44zM7.23 6h-.68a.74.74 0 01-.68-.77.74.74 0 01.68-.77.74.74 0 01.68.77zm4.28 0h-.68v-.81a.68.68 0 111.35 0 .73.73 0 01-.67.81z" fill="url(#b)"/><path fill="#999" d="M6.96 15.8l4.08-.79v-.45l-4.08.8v.44zM11.04 16.11v-.44l-4.08.81v.04l.31.34 3.77-.75z"/></svg>

<svg id="b6f6d99e-f330-481d-836f-ea58cc42217f" xmlns="http://www.w3.org/2000/svg" width="18" height="18" viewBox="0 0 18 18"><defs><radialGradient id="a7a1c431-6c6d-4a8f-9a69-8da437e5b0c5" cx="9" cy="7.35" r="6.42" gradientUnits="userSpaceOnUse"><stop offset="0" stop-color="#b77af4" /><stop offset="0.21" stop-color="#b378f2" /><stop offset="0.43" stop-color="#a672ed" /><stop offset="0.65" stop-color="#9267e4" /><stop offset="0.88" stop-color="#7559d8" /><stop offset="1" stop-color="#624fd0" /></radialGradient><linearGradient id="ec0c4f0d-5c8e-4882-96a1-89d61808eb49" x1="9.02" y1="3.91" x2="9.08" y2="11.49" gradientUnits="userSpaceOnUse"><stop offset="0" stop-color="#f2f2f2" /><stop offset="0.23" stop-color="#f1f1f2" stop-opacity="0.99" /><stop offset="0.37" stop-color="#ededf1" stop-opacity="0.95" /><stop offset="0.48" stop-color="#e7e5f0" stop-opacity="0.89" /><stop offset="0.58" stop-color="#dedbee" stop-opacity="0.81" /><stop offset="0.67" stop-color="#d3ceeb" stop-opacity="0.7" /><stop offset="0.76" stop-color="#c4bee8" stop-opacity="0.57" /><stop offset="0.84" stop-color="#b4abe5" stop-opacity="0.41" /><stop offset="0.92" stop-color="#a095e1" stop-opacity="0.22" /><stop offset="0.99" stop-color="#8b7ddc" stop-opacity="0.02" /><stop offset="1" stop-color="#897bdc" stop-opacity="0" /></linearGradient></defs><title>Icon-manage-310</title><path d="M10.23,17.39l.81-.87V14.2H7v2.32l.81.87A.32.32,0,0,0,8,17.5h2A.32.32,0,0,0,10.23,17.39Z" fill="#cecece" /><path d="M9,.5A5.89,5.89,0,0,0,3.09,7.07c.27,2.47,2.62,3.62,3.29,6.75a.49.49,0,0,0,.47.38h4.3a.49.49,0,0,0,.47-.38c.67-3.13,3-4.28,3.29-6.75A5.89,5.89,0,0,0,9,.5ZM7,14.2" fill="url(#a7a1c431-6c6d-4a8f-9a69-8da437e5b0c5)" /><path d="M11.46,3.79a1.4,1.4,0,0,0-1.35,1.44V6H8V5.23A1.41,1.41,0,0,0,6.59,3.79,1.4,1.4,0,0,0,5.24,5.23,1.41,1.41,0,0,0,6.59,6.68h.64v6a.36.36,0,0,0,.72,0v-6h2.16v6a.36.36,0,1,0,.72,0v-6h.63a1.4,1.4,0,0,0,1.35-1.45A1.4,1.4,0,0,0,11.46,3.79ZM7.23,6H6.55a.74.74,0,0,1-.68-.77.74.74,0,0,1,.68-.77.74.74,0,0,1,.68.77Zm4.28,0h-.68V5.19a.68.68,0,1,1,1.35,0A.73.73,0,0,1,11.51,6Z" fill="url(#ec0c4f0d-5c8e-4882-96a1-89d61808eb49)" /><polygon points="6.96 15.8 11.04 15.01 11.04 14.56 6.96 15.36 6.96 15.8" fill="#999" /><polygon points="11.04 16.11 11.04 15.67 6.96 16.48 6.96 16.52 7.27 16.86 11.04 16.11" fill="#999" /></svg>
